X:53
T:O'Mahony's
S:Trad, arr. Paddy O'Brien
R:jig
E:10
I:speed 350
M:6/8
K:DMix
A/2G/2|FEF DFA|dAF AFD|(4EFGE CEG|cGE CEG|\
FEF DFA|dAF AFD|GFG EFG|AFD D2:|\
e|~f2d d^cd|afd de=f|~e2c cBc|gec efg|1\
~f2d d^cd|afd def|gfg efg|afd d2:|2\
~a2 f gfe|fed cAF|GFG EFG|AFD D2||**

